X:1
T:Goldberg Variations: Variation IV
T:BWV 988
T:J. S. Bach
%%score { ( 1 3 ) | ( 2 4 ) }
L:1/8
M:3/8
K:G
V:1 treble nm="Harp"
V:3 treble 
V:2 bass 
V:4 bass 
V:1
 z BG | dAd | g3- | gf z | z3 | z3 | z Ac- | c/A/B z | z eg | ^c a2 | d g2- | gfe- | edc- | c B2 | %14
 Ad^c- | cd z | z BG | dAd | g3- | gf z | z3 | z3 | z Ac- | c/A/B z | z eg | ^c a2 | d g2- | gfe- | %28
 edc- | c B2 | Ad^c- | cd z | z fd | g b2- | ba/g/f/e/ | ^d/e/ f2- | feg | ^c^de- | e^d/^c/B/A/ | %39
 A/4G/4F/E z | z ce | ABd | G c2- | cdc | B/c/ d2- | d/c/d/c/B/A/ | dGF- | FG z | z fd | g b2- | %50
 ba/g/f/e/ | ^d/e/ f2- | feg | ^c^de- | e^d/^c/B/A/ | A/4G/4F/E z | z ce | ABd | G c2- | cdc | %60
 B/c/ d2- | d/c/d/c/B/A/ | dGF- | FG z |] %64
V:2
 G,3 | F,3 | z B,G, | D2 z | z G,B, | E,A,G,- | G,F,/E,/F, | G,D, z | z3 | z DF | B,E z | z ^CE | %12
 A,3- | A,G,B, | E,F,E, | D,2 z | G,3 | F,3 | z B,G, | D2 z | z G,B, | E,A,G,- | G,F,/E,/F, | %23
 G,D, z | z3 | z DF | B,E z | z ^CE | A,3- | A,G,B, | E,F,E, | D,2 z | D2 C | z DG | E C2- | %35
 CB,/A,/G,/F,/ | G,/A,/ B,2- | B,A,B, | C B,2- | B,G,B, | E,A,/G,/F,/G,/ | D2- D | CF,A, | D,3- | %44
 D,2 G,- | G,A,C | F,G,A, | G,2 z | D2 C | z DG | E C2- | CB,/A,/G,/F,/ | G,/A,/ B,2- | B,A,B, | %54
 C B,2- | B,G,B, | E,A,/G,/F,/G,/ | D2- D | CF,A, | D,3- | D,2 G,- | G,A,C | F,G,A, | G,2 z |] %64
V:3
 x3 | z DF | B,Gc | B/G/A z | x3 | z CE | A, D2- | DG z | x3 | x3 | z ^ce | A2 G- | GFA | DEG | %14
 ^CAG- | G/E/F z | x3 | z DF | B,Gc | B/G/A z | x3 | z CE | A, D2- | DG z | x3 | x3 | z ^ce | %27
 A2 G- | GFA | DEG | ^CAG- | G/E/F z | x3 | z dB | GAc | F2 z | z BG | EFG | F3 | E2 z | z Ac | %41
 FGB | E A2- | AFA- | AGB | E3 | A,DC | C/A,/B, z | x3 | z dB | GAc | F2 z | z BG | EFG | F3 | %55
 E2 z | z Ac | FGB | E A2- | AFA- | AGB | E3 | A,DC | C/A,/B, z |] %64
V:4
 x3 | x3 | E,3 | z D,F, | B,,3 | C,3 | D,3 | z B,,D, | G,, G,2- | G, F,2- | F,E,G, | ^C,A,^C | %12
 F,3 | G, G,,2- | G,,F,,A,, | D,,>D,E,/F,/ | x3 | x3 | E,3 | z D,F, | B,,3 | C,3 | D,3 | z B,,D, | %24
 G,, G,2- | G, F,2- | F,E,G, | ^C,A,^C | F,3 | G, G,,2- | G,,F,,A,, | D,,>A,B,/^C/ | x3 | B,2 G, | %34
 CF,A, | B,^D,B,, | E,G,E, | A,F,E, | A,B,B,, | E,2 D, | C,3- | C, B,,2- | B,,A,,C, | F,,D,,F,, | %44
 G,,B,,G,, | C,3- | C,B,,D, | G,,>A,B,/C/ | x3 | B,2 G, | CF,A, | B,^D,B,, | E,G,E, | A,F,E, | %54
 A,B,B,, | E,2 D, | C,3- | C, B,,2- | B,,A,,C, | F,,D,,F,, | G,,B,,G,, | C,3- | C,B,,D, | G,,2 z |] %64

